symbols/web/screenshot/materialsymbolssharp/screenshot_wght300gradN25_20px.svg

<svg xmlns="http://www.w3.org/2000/svg" height="20" width="20"><path d="M7.021 9.083v-3h3v.979H8v2.021Zm2.958 4.834v-.979H12v-2.021h.979v3Zm-5.271 4.666V1.417h10.584v17.166Zm1.25-3.625h8.084V5.042H5.958Zm0 2.375h8.084v-1.125H5.958Zm0-13.541h8.084V2.667H5.958Zm0 0V2.667v1.125Zm0 13.541v-1.125 1.125Z"/></svg>

<svg xmlns="http://www.w3.org/2000/svg" height="20" width="20"><path d="M7.021 9.083V6.083H10.021V7.062H8V9.083ZM9.979 13.917V12.938H12V10.917H12.979V13.917ZM4.708 18.583V1.417H15.292V18.583ZM5.958 14.958H14.042V5.042H5.958ZM5.958 17.333H14.042V16.208H5.958ZM5.958 3.792H14.042V2.667H5.958ZM5.958 3.792V2.667V3.792ZM5.958 17.333V16.208V17.333Z"/></svg>
